app/client/src/assets/icons/blueprintjs/20px/buggy.svg

<svg width="20" height="20" viewBox="0 0 20 20" fill="none" xmlns="http://www.w3.org/2000/svg">
<path fill-rule="evenodd" clip-rule="evenodd" d="M15.8356 1.01366C16.2686 0.941491 16.6981 1.16019 16.8944 1.55284L19.3757 6.51535L19.3952 6.51116C19.5429 6.47953 19.6969 6.5163 19.8143 6.61123C19.9318 6.70616 20 6.84907 20 7.00007V11.5001C20 11.7762 19.7761 12.0001 19.5 12.0001H15.5704C15.0688 12.0001 14.6005 12.2507 14.3223 12.668L12.916 14.7774C12.8233 14.9165 12.6672 15.0001 12.5 15.0001H8C7.86739 15.0001 7.74021 14.9474 7.64645 14.8536L5.23223 12.4394C4.95093 12.1581 4.5694 12.0001 4.17157 12.0001H0.5C0.223858 12.0001 0 11.7762 0 11.5001V8.50007C0 8.22392 0.223858 8.00007 0.5 8.00007H1.32296L3.07152 3.62867C3.20128 3.30426 3.49096 3.0711 3.8356 3.01366L15.8356 1.01366ZM16.125 4.48611L17.356 6.94814L14.5985 7.53903L16.125 4.48611ZM14.5001 3.26384L12.9403 6.38328L12.6878 5.74556L11.8627 3.7034L14.5001 3.26384ZM4.71948 4.89394L9.84173 4.04023L10.8296 6.48512L11.7287 8.75569L10.2324 11.0001H7.70711L4.85355 8.14651C4.75979 8.05274 4.63261 8.00007 4.5 8.00007H3.47703L4.71948 4.89394ZM3 19.0001C4.65685 19.0001 6 17.6569 6 16.0001C6 14.3432 4.65685 13.0001 3 13.0001C1.34315 13.0001 0 14.3432 0 16.0001C0 17.6569 1.34315 19.0001 3 19.0001ZM17 19.0001C18.6569 19.0001 20 17.6569 20 16.0001C20 14.3432 18.6569 13.0001 17 13.0001C15.3431 13.0001 14 14.3432 14 16.0001C14 17.6569 15.3431 19.0001 17 19.0001Z"/>
</svg>

<svg xmlns="http://www.w3.org/2000/svg" width="20" height="20"><path d="M15.836 1.014a1 1 0 0 1 1.058.539l2.482 4.962.02-.004a.5.5 0 0 1 .604.49v4.5a.5.5 0 0 1-.5.5h-3.93a1.5 1.5 0 0 0-1.248.667l-1.406 2.11A.5.5 0 0 1 12.5 15H8a.5.5 0 0 1-.354-.146l-2.414-2.415A1.5 1.5 0 0 0 4.172 12H.5a.5.5 0 0 1-.5-.5v-3A.5.5 0 0 1 .5 8h.823L3.072 3.63a1 1 0 0 1 .764-.615l12-2Zm.289 3.472 1.231 2.462-2.758.591 1.527-3.053ZM14.5 3.264l-1.56 3.12-.252-.638-.825-2.043 2.637-.44Zm-9.78 1.63 5.122-.854.988 2.445.899 2.27L10.232 11H7.707L4.854 8.147A.5.5 0 0 0 4.5 8H3.477l1.242-3.106ZM3 19a3 3 0 1 0 0-6 3 3 0 0 0 0 6Zm14 0a3 3 0 1 0 0-6 3 3 0 0 0 0 6Z" clip-rule="evenodd"/></svg>
